bernoullicharts/1_1_x_alt_series__bound.svg

<?xml version="1.0" encoding="utf-8" standalone="no"?>
<!DOCTYPE svg PUBLIC "-//W3C//DTD SVG 1.1//EN"
  "http://www.w3.org/Graphics/SVG/1.1/DTD/svg11.dtd">
<!-- Created with matplotlib (https://matplotlib.org/) -->
<svg height="345.6pt" version="1.1" viewBox="0 0 460.8 345.6" width="460.8pt" xmlns="http://www.w3.org/2000/svg" xmlns:xlink="http://www.w3.org/1999/xlink">
 <defs>
  <style type="text/css">
*{stroke-linecap:butt;stroke-linejoin:round;}
  </style>
 </defs>
 <g id="figure_1">
  <g id="patch_1">
   <path d="M 0 345.6 
L 460.8 345.6 
L 460.8 0 
L 0 0 
z
" style="fill:#ffffff;"/>
  </g>
  <g id="axes_1">
   <g id="patch_2">
    <path d="M 57.6 307.584 
L 414.72 307.584 
L 414.72 41.472 
L 57.6 41.472 
z
" style="fill:#ffffff;"/>
   </g>
   <g id="matplotlib.axis_1">
    <g id="xtick_1">
     <g id="line2d_1">
      <defs>
       <path d="M 0 0 
L 0 3.5 
" id="m29e6798d40" style="stroke:#000000;stroke-width:0.8;"/>
      </defs>
      <g>
       <use style="stroke:#000000;stroke-width:0.8;" x="73.800255" xlink:href="#m29e6798d40" y="307.584"/>
      </g>
     </g>
     <g id="text_1">
      <text style="font-family:DejaVu Sans;font-size:10px;font-style:normal;font-weight:normal;text-anchor:middle;" transform="rotate(-0, 73.800255, 322.182437)" x="73.800255" y="322.182437">0.0</text>
     </g>
    </g>
    <g id="xtick_2">
     <g id="line2d_2">
      <g>
       <use style="stroke:#000000;stroke-width:0.8;" x="138.744153" xlink:href="#m29e6798d40" y="307.584"/>
      </g>
     </g>
     <g id="text_2">
      <text style="font-family:DejaVu Sans;font-size:10px;font-style:normal;font-weight:normal;text-anchor:middle;" transform="rotate(-0, 138.744153, 322.182437)" x="138.744153" y="322.182437">0.2</text>
     </g>
    </g>
    <g id="xtick_3">
     <g id="line2d_3">
      <g>
       <use style="stroke:#000000;stroke-width:0.8;" x="203.688051" xlink:href="#m29e6798d40" y="307.584"/>
      </g>
     </g>
     <g id="text_3">
      <text style="font-family:DejaVu Sans;font-size:10px;font-style:normal;font-weight:normal;text-anchor:middle;" transform="rotate(-0, 203.688051, 322.182437)" x="203.688051" y="322.182437">0.4</text>
     </g>
    </g>
    <g id="xtick_4">
     <g id="line2d_4">
      <g>
       <use style="stroke:#000000;stroke-width:0.8;" x="268.631949" xlink:href="#m29e6798d40" y="307.584"/>
      </g>
     </g>
     <g id="text_4">
      <text style="font-family:DejaVu Sans;font-size:10px;font-style:normal;font-weight:normal;text-anchor:middle;" transform="rotate(-0, 268.631949, 322.182437)" x="268.631949" y="322.182437">0.6</text>
     </g>
    </g>
    <g id="xtick_5">
     <g id="line2d_5">
      <g>
       <use style="stroke:#000000;stroke-width:0.8;" x="333.575847" xlink:href="#m29e6798d40" y="307.584"/>
      </g>
     </g>
     <g id="text_5">
      <text style="font-family:DejaVu Sans;font-size:10px;font-style:normal;font-weight:normal;text-anchor:middle;" transform="rotate(-0, 333.575847, 322.182437)" x="333.575847" y="322.182437">0.8</text>
     </g>
    </g>
    <g id="xtick_6">
     <g id="line2d_6">
      <g>
       <use style="stroke:#000000;stroke-width:0.8;" x="398.519745" xlink:href="#m29e6798d40" y="307.584"/>
      </g>
     </g>
     <g id="text_6">
      <text style="font-family:DejaVu Sans;font-size:10px;font-style:normal;font-weight:normal;text-anchor:middle;" transform="rotate(-0, 398.519745, 322.182437)" x="398.519745" y="322.182437">1.0</text>
     </g>
    </g>
    <g id="text_7">
     <text style="font-family:DejaVu Sans;font-size:10px;font-style:normal;font-weight:normal;text-anchor:middle;" transform="rotate(-0, 236.16, 335.860562)" x="236.16" y="335.860562">Input Coin's Heads Probability (λ)</text>
    </g>
   </g>
   <g id="matplotlib.axis_2">
    <g id="ytick_1">
     <g id="line2d_7">
      <defs>
       <path d="M 0 0 
L -3.5 0 
" id="m234b86981a" style="stroke:#000000;stroke-width:0.8;"/>
      </defs>
      <g>
       <use style="stroke:#000000;stroke-width:0.8;" x="57.6" xlink:href="#m234b86981a" y="295.488055"/>
      </g>
     </g>
     <g id="text_8">
      <text style="font-family:DejaVu Sans;font-size:10px;font-style:normal;font-weight:normal;text-anchor:end;" transform="rotate(-0, 50.6, 299.287273)" x="50.6" y="299.287273">0</text>
     </g>
    </g>
    <g id="ytick_2">
     <g id="line2d_8">
      <g>
       <use style="stroke:#000000;stroke-width:0.8;" x="57.6" xlink:href="#m234b86981a" y="251.742791"/>
      </g>
     </g>
     <g id="text_9">
      <text style="font-family:DejaVu Sans;font-size:10px;font-style:normal;font-weight:normal;text-anchor:end;" transform="rotate(-0, 50.6, 255.54201)" x="50.6" y="255.54201">20</text>
     </g>
    </g>
    <g id="ytick_3">
     <g id="line2d_9">
      <g>
       <use style="stroke:#000000;stroke-width:0.8;" x="57.6" xlink:href="#m234b86981a" y="207.997528"/>
      </g>
     </g>
     <g id="text_10">
      <text style="font-family:DejaVu Sans;font-size:10px;font-style:normal;font-weight:normal;text-anchor:end;" transform="rotate(-0, 50.6, 211.796747)" x="50.6" y="211.796747">40</text>
     </g>
    </g>
    <g id="ytick_4">
     <g id="line2d_10">
      <g>
       <use style="stroke:#000000;stroke-width:0.8;" x="57.6" xlink:href="#m234b86981a" y="164.252265"/>
      </g>
     </g>
     <g id="text_11">
      <text style="font-family:DejaVu Sans;font-size:10px;font-style:normal;font-weight:normal;text-anchor:end;" transform="rotate(-0, 50.6, 168.051484)" x="50.6" y="168.051484">60</text>
     </g>
    </g>
    <g id="ytick_5">
     <g id="line2d_11">
      <g>
       <use style="stroke:#000000;stroke-width:0.8;" x="57.6" xlink:href="#m234b86981a" y="120.507002"/>
      </g>
     </g>
     <g id="text_12">
      <text style="font-family:DejaVu Sans;font-size:10px;font-style:normal;font-weight:normal;text-anchor:end;" transform="rotate(-0, 50.6, 124.306221)" x="50.6" y="124.306221">80</text>
     </g>
    </g>
    <g id="ytick_6">
     <g id="line2d_12">
      <g>
       <use style="stroke:#000000;stroke-width:0.8;" x="57.6" xlink:href="#m234b86981a" y="76.761739"/>
      </g>
     </g>
     <g id="text_13">
      <text style="font-family:DejaVu Sans;font-size:10px;font-style:normal;font-weight:normal;text-anchor:end;" transform="rotate(-0, 50.6, 80.560957)" x="50.6" y="80.560957">100</text>
     </g>
    </g>
    <g id="text_14">
     <text style="font-family:DejaVu Sans;font-size:10px;font-style:normal;font-weight:normal;text-anchor:middle;" transform="rotate(-90, 25.432813, 174.528)" x="25.432813" y="174.528">Coin Flips Needed</text>
    </g>
   </g>
   <g id="line2d_13">
    <path clip-path="url(#pddc0857158)" d="M 73.832727 293.301448 
L 77.112066 293.366594 
L 80.391405 293.429601 
L 83.670744 293.490559 
L 86.950083 293.549549 
L 90.229421 293.606651 
L 93.50876 293.66194 
L 96.788099 293.715488 
L 100.067438 293.767363 
L 103.346777 293.81763 
L 106.626116 293.86635 
L 109.905455 293.913583 
L 113.184793 293.959386 
L 116.464132 294.003811 
L 119.743471 294.046911 
L 123.02281 294.088733 
L 126.302149 294.129325 
L 129.581488 294.168732 
L 132.860826 294.206996 
L 136.140165 294.244158 
L 139.419504 294.280258 
L 142.698843 294.315332 
L 145.978182 294.349417 
L 149.257521 294.382546 
L 152.53686 294.414753 
L 155.816198 294.44607 
L 159.095537 294.476525 
L 162.374876 294.50615 
L 165.654215 294.53497 
L 168.933554 294.563013 
L 172.212893 294.590305 
L 175.492231 294.61687 
L 178.77157 294.642732 
L 182.050909 294.667913 
L 185.330248 294.692435 
L 188.609587 294.71632 
L 191.888926 294.739587 
L 195.168264 294.762255 
L 198.447603 294.784344 
L 201.726942 294.805872 
L 205.006281 294.826855 
L 208.28562 294.84731 
L 211.564959 294.867254 
L 214.844298 294.886702 
L 218.123636 294.905668 
L 221.402975 294.924167 
L 224.682314 294.942214 
L 227.961653 294.95982 
L 231.240992 294.977 
L 234.520331 294.993765 
L 237.799669 295.010128 
L 241.079008 295.0261 
L 244.358347 295.041692 
L 247.637686 295.056915 
L 250.917025 295.07178 
L 254.196364 295.086297 
L 257.475702 295.100474 
L 260.755041 295.114323 
L 264.03438 295.127851 
L 267.313719 295.141068 
L 270.593058 295.153982 
L 273.872397 295.166601 
L 277.151736 295.178933 
L 280.431074 295.190987 
L 283.710413 295.202769 
L 286.989752 295.214286 
L 290.269091 295.225546 
L 293.54843 295.236556 
L 296.827769 295.247321 
L 300.107107 295.257849 
L 303.386446 295.268146 
L 306.665785 295.278216 
L 309.945124 295.288067 
L 313.224463 295.297704 
L 316.503802 295.307132 
L 319.78314 295.316356 
L 323.062479 295.325382 
L 326.341818 295.334215 
L 329.621157 295.342859 
L 332.900496 295.351319 
L 336.179835 295.359599 
L 339.459174 295.367705 
L 342.738512 295.375639 
L 346.017851 295.383408 
L 349.29719 295.391013 
L 352.576529 295.39846 
L 355.855868 295.405752 
L 359.135207 295.412893 
L 362.414545 295.419886 
L 365.693884 295.426735 
L 368.973223 295.433443 
L 372.252562 295.440014 
L 375.531901 295.446451 
L 378.81124 295.452756 
L 382.090579 295.458934 
L 385.369917 295.464986 
L 388.649256 295.470916 
L 391.928595 295.476727 
L 395.207934 295.48242 
L 398.487273 295.488 
" style="fill:none;stroke:#1f77b4;stroke-linecap:square;stroke-width:1.5;"/>
   </g>
   <g id="line2d_14">
    <path clip-path="url(#pddc0857158)" d="M 73.832727 293.300792 
L 77.112066 293.283293 
L 80.391405 293.261421 
L 83.670744 293.248297 
L 86.950083 293.187054 
L 90.229421 293.195803 
L 93.50876 293.191428 
L 96.788099 293.138934 
L 100.067438 293.090814 
L 103.346777 293.077691 
L 106.626116 292.998949 
L 109.905455 293.055818 
L 113.184793 293.003324 
L 116.464132 292.959578 
L 119.743471 292.924582 
L 123.02281 292.928957 
L 126.302149 292.832717 
L 129.581488 292.867713 
L 132.860826 292.80647 
L 136.140165 292.863339 
L 139.419504 292.662111 
L 142.698843 292.679609 
L 145.978182 292.71023 
L 149.257521 292.613991 
L 152.53686 292.635864 
L 155.816198 292.443384 
L 159.095537 292.504628 
L 162.374876 292.408388 
L 165.654215 292.443384 
L 168.933554 292.425886 
L 172.212893 292.290276 
L 175.492231 292.312149 
L 178.77157 292.202785 
L 182.050909 292.194036 
L 185.330248 292.237782 
L 188.609587 291.949063 
L 191.888926 292.019055 
L 195.168264 292.058426 
L 198.447603 291.870321 
L 201.726942 291.769707 
L 205.006281 291.809078 
L 208.28562 291.804704 
L 211.564959 291.590352 
L 214.844298 291.445992 
L 218.123636 291.402247 
L 221.402975 291.32788 
L 224.682314 291.625348 
L 227.961653 291.262262 
L 231.240992 291.039161 
L 234.520331 291.32788 
L 237.799669 291.148525 
L 241.079008 291.292884 
L 244.358347 291.034787 
L 247.637686 290.369859 
L 250.917025 290.820435 
L 254.196364 290.522967 
L 257.475702 290.36111 
L 260.755041 290.2255 
L 264.03438 290.514218 
L 267.313719 290.2255 
L 270.593058 290.159882 
L 273.872397 289.923657 
L 277.151736 289.718054 
L 280.431074 289.840541 
L 283.710413 289.490579 
L 286.989752 289.219358 
L 290.269091 288.781906 
L 293.54843 288.908767 
L 296.827769 288.13885 
L 300.107107 288.103854 
L 303.386446 288.388198 
L 306.665785 287.250822 
L 309.945124 287.294567 
L 313.224463 287.329563 
L 316.503802 286.603392 
L 319.78314 286.577145 
L 323.062479 286.415287 
L 326.341818 285.304157 
L 329.621157 285.553505 
L 332.900496 284.2149 
L 336.179835 284.416129 
L 339.459174 283.418737 
L 342.738512 282.83255 
L 346.017851 282.539457 
L 349.29719 280.649661 
L 352.576529 280.391564 
L 355.855868 278.287417 
L 359.135207 277.771223 
L 362.414545 277.141291 
L 365.693884 273.794779 
L 368.973223 270.855097 
L 372.252562 267.403596 
L 375.531901 262.539122 
L 378.81124 257.569661 
L 382.090579 252.232738 
L 385.369917 238.925429 
L 388.649256 221.807908 
L 391.928595 192.00426 
L 395.207934 53.568 
" style="fill:none;stroke:#ff7f0e;stroke-linecap:square;stroke-width:1.5;"/>
   </g>
   <g id="patch_3">
    <path d="M 57.6 307.584 
L 57.6 41.472 
" style="fill:none;stroke:#000000;stroke-linecap:square;stroke-linejoin:miter;stroke-width:0.8;"/>
   </g>
   <g id="patch_4">
    <path d="M 414.72 307.584 
L 414.72 41.472 
" style="fill:none;stroke:#000000;stroke-linecap:square;stroke-linejoin:miter;stroke-width:0.8;"/>
   </g>
   <g id="patch_5">
    <path d="M 57.6 307.584 
L 414.72 307.584 
" style="fill:none;stroke:#000000;stroke-linecap:square;stroke-linejoin:miter;stroke-width:0.8;"/>
   </g>
   <g id="patch_6">
    <path d="M 57.6 41.472 
L 414.72 41.472 
" style="fill:none;stroke:#000000;stroke-linecap:square;stroke-linejoin:miter;stroke-width:0.8;"/>
   </g>
   <g id="text_15">
    <text style="font-family:DejaVu Sans;font-size:12px;font-style:normal;font-weight:normal;text-anchor:middle;" transform="rotate(-0, 236.16, 35.472)" x="236.16" y="35.472">Coin Flips for 1/(1+x)</text>
   </g>
   <g id="legend_1">
    <g id="patch_7">
     <path d="M 64.6 78.82825 
L 291.590625 78.82825 
Q 293.590625 78.82825 293.590625 76.82825 
L 293.590625 48.472 
Q 293.590625 46.472 291.590625 46.472 
L 64.6 46.472 
Q 62.6 46.472 62.6 48.472 
L 62.6 76.82825 
Q 62.6 78.82825 64.6 78.82825 
z
" style="fill:#ffffff;opacity:0.8;stroke:#cccccc;stroke-linejoin:miter;"/>
    </g>
    <g id="line2d_15">
     <path d="M 66.6 54.570437 
L 86.6 54.570437 
" style="fill:none;stroke:#1f77b4;stroke-linecap:square;stroke-width:1.5;"/>
    </g>
    <g id="line2d_16"/>
    <g id="text_16">
     <text style="font-family:DejaVu Sans;font-size:10px;font-style:normal;font-weight:normal;text-anchor:start;" transform="rotate(-0, 94.6, 58.070437)" x="94.6" y="58.070437">Coin Flip Lower Bound (Mendo)</text>
    </g>
    <g id="line2d_17">
     <path d="M 66.6 69.248562 
L 86.6 69.248562 
" style="fill:none;stroke:#ff7f0e;stroke-linecap:square;stroke-width:1.5;"/>
    </g>
    <g id="line2d_18"/>
    <g id="text_17">
     <text style="font-family:DejaVu Sans;font-size:10px;font-style:normal;font-weight:normal;text-anchor:start;" transform="rotate(-0, 94.6, 72.748562)" x="94.6" y="72.748562">Avg. Coins Flipped 1/(1+x) (Alt. Series)</text>
    </g>
   </g>
  </g>
 </g>
 <defs>
  <clipPath id="pddc0857158">
   <rect height="266.112" width="357.12" x="57.6" y="41.472"/>
  </clipPath>
 </defs>
</svg>

<svg height="460.8" viewBox="0 0 460.8 345.6" width="614.4" xmlns="http://www.w3.org/2000/svg" xmlns:xlink="http://www.w3.org/1999/xlink"><defs><style>*{stroke-linecap:butt;stroke-linejoin:round}</style></defs><g id="figure_1"><path d="M0 345.6h460.8V0H0z" fill="#fff" id="patch_1"/><g id="axes_1"><path d="M57.6 307.584h357.12V41.472H57.6z" fill="#fff" id="patch_2"/><g id="matplotlib.axis_1"><g id="xtick_1"><g id="line2d_1"><defs><path d="M0 0v3.5" id="m29e6798d40" stroke="#000" stroke-width=".8"/></defs><use x="73.8" xlink:href="#m29e6798d40" y="307.584" stroke="#000" stroke-width=".8"/></g><text x="73.8" y="322.182" font-family="DejaVu Sans" font-size="10" font-weight="400" text-anchor="middle" id="text_1">0.0</text></g><g id="xtick_2"><use x="138.744" xlink:href="#m29e6798d40" y="307.584" stroke="#000" stroke-width=".8" id="line2d_2"/><text x="138.744" y="322.182" font-family="DejaVu Sans" font-size="10" font-weight="400" text-anchor="middle" id="text_2">0.2</text></g><g id="xtick_3"><use x="203.688" xlink:href="#m29e6798d40" y="307.584" stroke="#000" stroke-width=".8" id="line2d_3"/><text x="203.688" y="322.182" font-family="DejaVu Sans" font-size="10" font-weight="400" text-anchor="middle" id="text_3">0.4</text></g><g id="xtick_4"><use x="268.632" xlink:href="#m29e6798d40" y="307.584" stroke="#000" stroke-width=".8" id="line2d_4"/><text x="268.632" y="322.182" font-family="DejaVu Sans" font-size="10" font-weight="400" text-anchor="middle" id="text_4">0.6</text></g><g id="xtick_5"><use x="333.576" xlink:href="#m29e6798d40" y="307.584" stroke="#000" stroke-width=".8" id="line2d_5"/><text x="333.576" y="322.182" font-family="DejaVu Sans" font-size="10" font-weight="400" text-anchor="middle" id="text_5">0.8</text></g><g id="xtick_6"><use x="398.52" xlink:href="#m29e6798d40" y="307.584" stroke="#000" stroke-width=".8" id="line2d_6"/><text x="398.52" y="322.182" font-family="DejaVu Sans" font-size="10" font-weight="400" text-anchor="middle" id="text_6">1.0</text></g><text x="236.16" y="335.861" font-family="DejaVu Sans" font-size="10" font-weight="400" text-anchor="middle" id="text_7">Input Coin&apos;s Heads Probability (λ)</text></g><g id="matplotlib.axis_2"><g id="ytick_1"><g id="line2d_7"><defs><path d="M0 0h-3.5" id="m234b86981a" stroke="#000" stroke-width=".8"/></defs><use x="57.6" xlink:href="#m234b86981a" y="295.488" stroke="#000" stroke-width=".8"/></g><text x="50.6" y="299.287" font-family="DejaVu Sans" font-size="10" font-weight="400" text-anchor="end" id="text_8">0</text></g><g id="ytick_2"><use x="57.6" xlink:href="#m234b86981a" y="251.743" stroke="#000" stroke-width=".8" id="line2d_8"/><text x="50.6" y="255.542" font-family="DejaVu Sans" font-size="10" font-weight="400" text-anchor="end" id="text_9">20</text></g><g id="ytick_3"><use x="57.6" xlink:href="#m234b86981a" y="207.998" stroke="#000" stroke-width=".8" id="line2d_9"/><text x="50.6" y="211.797" font-family="DejaVu Sans" font-size="10" font-weight="400" text-anchor="end" id="text_10">40</text></g><g id="ytick_4"><use x="57.6" xlink:href="#m234b86981a" y="164.252" stroke="#000" stroke-width=".8" id="line2d_10"/><text x="50.6" y="168.051" font-family="DejaVu Sans" font-size="10" font-weight="400" text-anchor="end" id="text_11">60</text></g><g id="ytick_5"><use x="57.6" xlink:href="#m234b86981a" y="120.507" stroke="#000" stroke-width=".8" id="line2d_11"/><text x="50.6" y="124.306" font-family="DejaVu Sans" font-size="10" font-weight="400" text-anchor="end" id="text_12">80</text></g><g id="ytick_6"><use x="57.6" xlink:href="#m234b86981a" y="76.762" stroke="#000" stroke-width=".8" id="line2d_12"/><text x="50.6" y="80.561" font-family="DejaVu Sans" font-size="10" font-weight="400" text-anchor="end" id="text_13">100</text></g><text transform="rotate(-90 25.433 174.528)" x="25.433" y="174.528" font-family="DejaVu Sans" font-size="10" font-weight="400" text-anchor="middle" id="text_14">Coin Flips Needed</text></g><path clip-path="url(#pddc0857158)" d="M73.833 293.301l3.28.066 3.278.063 3.28.06 3.28.06 3.278.057 3.28.055 3.28.053 3.278.052 3.28.05 3.28.05 3.278.047 3.28.045 3.28.045 3.278.043 3.28.042 3.28.04 3.278.04 3.28.038 3.28.037 3.279.036 3.279.035 3.28.034 3.279.034 3.279.032 3.28.031 3.279.03 3.279.03 3.28.029 3.279.028 3.279.027 3.28.027 3.279.026 3.279.025 3.28.024 3.279.024 3.279.024 3.28.022 3.279.022 3.279.022 3.28.02 3.279.021 3.279.02 3.28.02 3.279.019 3.279.018 3.28.018 3.279.018 3.279.017 3.28.017 3.279.016 3.279.016 3.28.016 3.279.015 3.279.015 3.28.014 3.279.014 3.279.014 3.28.014 3.279.013 3.28.013 3.278.013 3.28.012 3.28.012 3.278.012 3.28.011 3.28.012 3.278.01 3.28.011 3.28.01 3.278.011 3.28.01 3.28.01 3.278.01 3.28.01 3.28.008 3.278.01 3.28.008 3.28.009 3.278.008 3.28.009 3.28.008 3.279.008 3.279.007 3.28.008 3.279.007 3.279.008 3.28.007 3.279.007 3.279.007 3.28.006 3.279.007 3.279.006 3.28.007 3.279.006 3.279.006 3.28.006 3.279.006 3.279.005 3.28.006" fill="none" stroke="#1f77b4" stroke-linecap="square" stroke-width="1.5" id="line2d_13"/><path clip-path="url(#pddc0857158)" d="M73.833 293.3l3.28-.017 3.278-.022 3.28-.013 3.28-.06 3.278.008 3.28-.005 3.28-.052 3.278-.048 3.28-.013 3.28-.08 3.278.058 3.28-.053 3.28-.043 3.278-.035 3.28.004 3.28-.096 3.278.035 3.28-.062 3.28.057 3.279-.2 3.279.017 3.28.03 3.279-.096 3.279.022 3.28-.193 3.279.062 3.279-.097 3.28.035 3.279-.017 3.279-.136 3.28.022 3.279-.11 3.279-.008 3.28.044 3.279-.289 3.279.07 3.28.04 3.279-.189 3.279-.1 3.28.04 3.279-.005 3.279-.215 3.28-.144 3.279-.044 3.279-.074 3.28.297 3.279-.363 3.279-.223 3.28.289 3.279-.18 3.279.145 3.28-.258 3.279-.665 3.279.45 3.28-.297 3.279-.162 3.279-.135 3.28.288 3.279-.288 3.28-.066 3.278-.236 3.28-.206 3.28.123 3.278-.35 3.28-.272 3.28-.437 3.278.127 3.28-.77 3.28-.035 3.278.284 3.28-1.137 3.28.044 3.278.035 3.28-.727 3.28-.026 3.278-.162 3.28-1.11 3.28.249 3.278-1.34 3.28.202 3.28-.997 3.279-.586 3.279-.294 3.28-1.89 3.279-.257 3.279-2.105 3.28-.516 3.279-.63 3.279-3.346 3.28-2.94 3.279-3.451 3.279-4.865 3.28-4.97 3.279-5.336 3.279-13.308 3.28-17.117 3.279-29.804 3.279-138.436" fill="none" stroke="#ff7f0e" stroke-linecap="square" stroke-width="1.5" id="line2d_14"/><path d="M57.6 307.584V41.472" fill="none" stroke="#000" stroke-linecap="square" stroke-width=".8" id="patch_3"/><path d="M414.72 307.584V41.472" fill="none" stroke="#000" stroke-linecap="square" stroke-width=".8" id="patch_4"/><path d="M57.6 307.584h357.12" fill="none" stroke="#000" stroke-linecap="square" stroke-width=".8" id="patch_5"/><path d="M57.6 41.472h357.12" fill="none" stroke="#000" stroke-linecap="square" stroke-width=".8" id="patch_6"/><text x="236.16" y="35.472" font-family="DejaVu Sans" font-size="12" font-weight="400" text-anchor="middle" id="text_15">Coin Flips for 1/(1+x)</text><g id="legend_1"><path d="M64.6 78.828h226.99q2 0 2-2V48.472q0-2-2-2H64.6q-2 0-2 2v28.356q0 2 2 2z" fill="#fff" opacity=".8" stroke="#ccc" id="patch_7"/><path d="M66.6 54.57h20" fill="none" stroke="#1f77b4" stroke-linecap="square" stroke-width="1.5" id="line2d_15"/><text x="94.6" y="58.07" font-family="DejaVu Sans" font-size="10" font-weight="400" id="text_16">Coin Flip Lower Bound (Mendo)</text><path d="M66.6 69.249h20" fill="none" stroke="#ff7f0e" stroke-linecap="square" stroke-width="1.5" id="line2d_17"/><text x="94.6" y="72.749" font-family="DejaVu Sans" font-size="10" font-weight="400" id="text_17">Avg. Coins Flipped 1/(1+x) (Alt. Series)</text></g></g></g><defs><clipPath id="pddc0857158"><path d="M57.6 41.472h357.12v266.112H57.6z"/></clipPath></defs></svg>
